X:1
T:When the Bridegroom Calleth
T:When the Bridegroom Calleth
T:Matthew Lindsay McPhail
T:G. M. Bills, 1899
T:Public Domain Courtesy of the Cyber Hymnal™
T:Public Domain Courtesy of the Cyber Hymnal™
C:Matthew Lindsay McPhail
Z:Public Domain
Z:Courtesy of the Cyber Hymnal™
%%score ( 1 2 ) ( 3 4 )
L:1/8
Q:1/4=100
M:4/4
K:D
V:1 treble 
V:2 treble 
V:3 bass 
V:4 bass 
V:1
 [DF]>[EG] | [FA]2 [DF]2 [EG]>[DF] [DG]>[DB] | [DA]6 D>[DE] | [DF]3 [DG] [DF]2 [CE]2 | %4
w: 1.~When the|Bride- groom call- eth from the|skies— For His|jew- els white and|
w: 2.~When the|Bride- groom call- eth for His|bride, And the|pure His pal- ace|
w: 3.~When the|Bride- groom call- eth from their|toil, All who|hold His name most|
w: 4.~When the|Bride- groom call- eth from re-|pose, Those who|rest from ho- ly|
w: 5.~When the|Bride- groom sounds the fi- nal|call, And the|scroll shall be un-|
 D6 [DF]>[EG] | [FA]2 [DF]2 [DG]>[DF] [DG]>[DB] | [DA]6 D>[DE] | [DF]3 [DG] [DF]2 [CE]2 | D6 || %9
w: fair; At the|bliss- ful crown- ing of the|wise, Who will|be in- vit- ed|there?|
w: throng; There while|count- less ag- es sweet- ly|glide, She will|sing re- demp- tion’s|song.|
w: dear; Who with|care have filled their lamps with|oil, And a-|wait His com- ing|near.|
w: strife; When re-|wards for ser- vice He bes-|tows, Who will|wear a crown of|life?|
w: rolled, When the|vic- tors cross the jas- per|sea, Who will|tread the streets of|gold?|
"^Refrain" [FA]>[FA] | [Fd]4- [Fd]>[Ge] [Fd]>[GB] | [FA]4 [DF]2 [DF]>[FA] | [FA]4 [EG]2 [EG]>[GB] | %13
w: ||||
w: ||||
w: All the|wise * will be in-|vit- ed, When He|call- eth to the|
w: ||||
w: ||||
 [GB]4 [FA]2 [FA]>[FA] | [Fd]4- [Fd]>[Ge] [Fd]>[GB] | [FA]4 [DF]2 [DF]>[FA] | [FA]4 [EG]2 [CE]2 | %17
w: ||||
w: ||||
w: crown- ing; All the|wise * will be in-|vit- ed, To the|feast of the|
w: ||||
w: ||||
 D6 |] %18
w: |
w: |
w: Lamb.|
w: |
w: |
V:2
 x2 | x8 | x6 D3/2 x/ | x8 | D6 x2 | x8 | x6 D3/2 x/ | x8 | D6 || x2 | x8 | x8 | x8 | x8 | x8 | %15
 x8 | x8 | D6 |] %18
V:3
 [D,A,]>[D,A,] | [D,D]2 [D,A,]2 [D,B,]>[D,A,] [D,B,]>[D,G,] | [D,F,]6 [D,F,]>[D,G,] | %3
w: ~ ~|~ ~ ~ ~ ~ ~|~ ~ ~|
 [D,A,]3 [G,B,] A,2 [A,,G,]2 | [D,F,]6 [D,A,]>[D,A,] | [D,D]2 [D,A,]2 [D,B,]>[D,A,] [D,B,]>[D,G,] | %6
w: ~ ~ ~ ~|~ ~ ~|~ ~ ~ ~ ~ ~|
 [D,F,]6 [D,F,]>[D,G,] | [D,A,]3 [G,,B,] [A,,A,]2 [A,,G,]2 | [D,F,]6 || [D,D]>[D,D] | %10
w: ~ ~ ~|~ ~ ~ ~|~|All the|
 [D,A,]>[D,A,] [D,A,]>[D,A,] [D,A,]>[D,A,] [D,A,]>[D,D] | %11
w: wise will be in- vit- ed, be in-|
 [D,D]>[D,D] [D,D]>[D,D] [D,A,]>[D,A,] [D,A,]>[D,D] | %12
w: vit- ed to the crown- ing, When He|
 [A,,C]>[A,,C] [A,,C]>[A,,C] [A,,C]>[A,,C] [A,,C]>[A,,C] | %13
w: call- eth to the crown- ing, to the|
 [D,D]>[D,D] [D,D]>[D,D] [D,D]2 [D,D]>[D,D] | %14
w: crown- ing of the pure; All the|
 [D,A,]>[D,A,] [D,A,]>[D,A,] [D,A,]>[D,A,] [D,A,]>[D,D] | %15
w: wise will be in- vit- ed, all the|
 [D,D]>[D,D] [D,D]>[D,D] [D,A,]>[D,A,] [D,A,]>[D,A,] | %16
w: wise will be in- vit- ed, To the|
 [A,,A,]>[A,,A,] [A,,A,]>[A,,A,] [A,,A,]>[A,,A,] [A,,A,]>[A,,A,] | [D,F,]6 |] %18
w: roy- al mar- riage sup- per of the|Lamb.|
V:4
 x2 | x8 | x8 | x4 A,2 x2 | x8 | x8 | x8 | x8 | x6 || x2 | x8 | x8 | x8 | x8 | x8 | x8 | x8 | x6 |] %18

